src/icons/folder-opened.svg

<svg width="16" height="16" viewBox="0 0 16 16" fill="none" xmlns="http://www.w3.org/2000/svg">
<path d="M0.5 14H12.5L12.98 13.63L15.61 6.63L15.13 6H13V3.5L12.5 3H6.70996L5.84998 2.15002L5.5 2H0.5L0 2.5V13.5L0.5 14V14ZM1 3H5.29004L6.15002 3.84998L6.5 4H12V6H8.5L8.15002 6.15002L7.29004 7H2.5L2.03003 7.33997L1.03003 10.42L1 3ZM12.13 13H1.18994L2.85999 8H7.5L7.84998 7.84998L8.70996 7H14.5L12.13 13Z" fill="#C5C5C5"/>
</svg>

<svg width="16" height="16" xmlns="http://www.w3.org/2000/svg"><path d="M.5 14h12l.48-.37 2.63-7-.48-.63H13V3.5l-.5-.5H6.71l-.86-.85L5.5 2h-5l-.5.5v11l.5.5zM1 3h4.29l.86.85.35.15H12v2H8.5l-.35.15-.86.85H2.5l-.47.34-1 3.08L1 3zm11.13 10H1.19l1.67-5H7.5l.35-.15.86-.85h5.79l-2.37 6z"/></svg>
